Alemania/Otras categorias/1fc Kaiserslautern2.svg

<svg fill-rule="evenodd" height="841.89pt" viewBox="0 0 595.276 841.89" width="595.276pt" xmlns="http://www.w3.org/2000/svg"><path d="m14.1416 421.891c0-157.874 127.9854-285.858 285.8664-285.86 157.863.002 285.848 127.986 285.85 285.86-.002 157.885-127.987 285.855-285.85 285.857-157.881-.002-285.8664-127.972-285.8664-285.857z" fill="#662535"/><path d="m19.8589 421.891c.0019 77.373 31.3525 147.389 82.0541 198.092 50.706 50.699 120.725 82.045 198.096 82.047 77.36-.002 147.377-31.348 198.081-82.047 50.698-50.703 82.049-120.719 82.051-198.092-.002-77.367-31.353-147.384-82.051-198.09-50.706-50.702-120.721-82.052-198.081-82.052-77.371 0-147.39 31.35-198.096 82.052-50.7016 50.706-82.0522 120.723-82.0541 198.09z" fill="#fff"/><path d="m35.0039 421.888c0-146.353 118.6401-264.994 264.9921-264.994 146.353 0 265 118.641 265 264.994 0 146.355-118.647 264.998-265 264.998-146.352 0-264.9921-118.643-264.9921-264.998" fill="#662535"/><g fill="#fff"><path d="m265.65 446.226c20.001-1.637 45.88.878 67.366 13.272 7.114 4.114 7.917 4.629 2.614 12.243l-13.629 19.583c-3.895 5.592-4.811 5.046-11.478 2.054-23.061-10.349-47.41-11.478-67.729-1.493-26.774 10.856-46.047 39.152-43.062 68.418 2.228 31.001 28.592 55.888 58.07 62.305 30.887 7.515 65.653-7.145 82.282-33.978 3.743-6.031 5.076-7.501 12.478-4.689l21.364 8.128c12.364 4.697 7.985 9.743-3.348 26.212-21.864 27.865-56.645 45.168-92.162 45.199-18.697.378-37.554-2.273-54.676-10.122-41.645-17.394-71.509-62.373-66.744-107.964 3.523-43.796 37.433-81.646 78.942-93.994 9.53-3.516 19.591-4.924 29.712-5.174"/><path d="m140.715 423.581c-7.689 0-7.886-.189-7.879 8.819l.099 103.911c.007 9.423.257 9.288-8.766 9.302l-23.69.061c-8.939.016-8.5073-.053-8.5073-9.568 0 0 .3105-164.481.3105-238.429 0-9.463.023-9.69 10.2658-9.69h121.488c10.508 0 10.629-.098 10.674 8.682l.084 21.466c0 9.698.22 10.209-10.978 10.171l-82.957-.288c-8.053-.022-8.023-.098-8.023 6.966v39.107c0 8.459.243 8.595 9.251 8.629l81.487.246c10.447.031 10.833.038 10.848 8.402l.038 25.486c.008 5.757-.196 6.431-9.288 6.431z"/><path d="m391.669 364.148c0 10.121.03 9.86 5.546 2.845l60.865-72.21c5.113-5.94 4.5-5.917 11.645-5.917h32.553c7.19 0 6.652 3.848 3.735 7.182l-54.35 65.289c-3.924 4.709-4.098 5.027-.97 14.277l50.668 161.242c1.387 4.417.667 8.667-5.977 8.667l-23.433.045c-7.651.091-9.038-1.31-11.5-7.561l-40.198-130.066c-2.28-7.379-5.401-2.687-8.75 2.177l-16.25 19.554c-3.439 3.432-3.788 7.121-3.75 15.439l.401 91.472c.037 9.212-.06 9.076-9.682 9.076-9.894 0-20.371.091-20.371.091-10.751.045-10.963-.235-10.963-9.614 0-9.371.917-161.268 0-238.512-.099-8.705-.242-8.758 9.477-8.758 9.72 0 23.35-.481 23.35-.481 8.136 0 8.075.083 8.075 9.068z"/><path d="m309.56 180.459c6.562 0 6.577.481 6.577 9.371v218.751c0 14.833.303 14.849-6.955 14.856l-27.137.03c-5.614.008-5.78-.113-5.795-8.557l-.289-180.894c-.015-11.06.766-13.902-5.56-7.72l-39.781 38.869c-4.289 4.189-4.667 4.087-8.41 4.094l-12.046.031c-3.204.007-10.015 0-3.81-5.955l80.805-77.611c5.174-5.167 5.394-5.11 9.735-5.39z"/></g></svg>

<?xml version="1.0" encoding="UTF-8" standalone="yes"?>
<!-- Created with sK1/UniConvertor (http://sk1project.org/) -->
<svg xmlns="http://www.w3.org/2000/svg" xmlns:xlink="http://www.w3.org/1999/xlink"
  width="595.276pt" height="841.89pt" viewBox="0 0 595.276 841.89"
  fill-rule="evenodd">
<g>
<path style="stroke:none; fill:#662535" d="M 14.1416 421.891C 14.1416 264.017 142.127 136.033 300.008 136.031L 300.008 136.031C 457.871 136.033 585.856 264.017 585.858 421.891L 585.858 421.891C 585.856 579.776 457.871 707.746 300.008 707.748L 300.008 707.748C 142.127 707.746 14.1416 579.776 14.1416 421.891L 14.1416 421.891z"/>
<path style="stroke:none; fill:#ffffff" d="M 19.8589 421.891C 19.8608 499.264 51.2114 569.28 101.913 619.983L 101.913 619.983C 152.619 670.682 222.638 702.028 300.009 702.03L 300.009 702.03C 377.369 702.028 447.386 670.682 498.09 619.983L 498.09 619.983C 548.788 569.28 580.139 499.264 580.141 421.891L 580.141 421.891C 580.139 344.524 548.788 274.507 498.09 223.801L 498.09 223.801C 447.384 173.099 377.369 141.749 300.009 141.749L 300.009 141.749C 222.638 141.749 152.619 173.099 101.913 223.801L 101.913 223.801C 51.2114 274.507 19.8608 344.524 19.8589 421.891L 19.8589 421.891L 19.8589 421.891z"/>
<path style="stroke:none; fill:#662535" d="M 35.0039 421.888C 35.0039 275.535 153.644 156.894 299.996 156.894C 446.349 156.894 564.996 275.535 564.996 421.888C 564.996 568.243 446.349 686.886 299.996 686.886C 153.644 686.886 35.0039 568.243 35.0039 421.888"/>
<path style="stroke:none; fill:#ffffff" d="M 265.65 446.226C 285.651 444.589 311.53 447.104 333.016 459.498C 340.13 463.612 340.933 464.127 335.63 471.741L 322.001 491.324C 318.106 496.916 317.19 496.37 310.523 493.378C 287.462 483.029 263.113 481.9 242.794 491.885C 216.02 502.741 196.747 531.037 199.732 560.303C 201.96 591.304 228.324 616.191 257.802 622.608C 288.689 630.123 323.455 615.463 340.084 588.63C 343.827 582.599 345.16 581.129 352.562 583.941L 373.926 592.069C 386.29 596.766 381.911 601.812 370.578 618.281C 348.714 646.146 313.933 663.449 278.416 663.48C 259.719 663.858 240.862 661.207 223.74 653.358C 182.095 635.964 152.231 590.985 156.996 545.394C 160.519 501.598 194.429 463.748 235.938 451.4C 245.468 447.884 255.529 446.476 265.65 446.226"/>
<path style="stroke:none; fill:#ffffff" d="M 140.715 423.581C 133.026 423.581 132.829 423.392 132.836 432.4L 132.935 536.311C 132.942 545.734 133.192 545.599 124.169 545.613L 100.479 545.674C 91.54 545.69 91.9717 545.621 91.9717 536.106C 91.9717 536.106 92.2822 371.625 92.2822 297.677C 92.2822 288.214 92.3052 287.987 102.548 287.987L 224.036 287.987C 234.544 287.987 234.665 287.889 234.71 296.669L 234.794 318.135C 234.794 327.833 235.014 328.344 223.816 328.306L 140.859 328.018C 132.806 327.996 132.836 327.92 132.836 334.984L 132.836 374.091C 132.836 382.55 133.079 382.686 142.087 382.72L 223.574 382.966C 234.021 382.997 234.407 383.004 234.422 391.368L 234.46 416.854C 234.468 422.611 234.264 423.285 225.172 423.285L 140.715 423.581z"/>
<path style="stroke:none; fill:#ffffff" d="M 391.669 364.148C 391.669 374.269 391.699 374.008 397.215 366.993L 458.08 294.783C 463.193 288.843 462.58 288.866 469.725 288.866L 502.278 288.866C 509.468 288.866 508.93 292.714 506.013 296.048L 451.663 361.337C 447.739 366.046 447.565 366.364 450.693 375.614L 501.361 536.856C 502.748 541.273 502.028 545.523 495.384 545.523L 471.951 545.568C 464.3 545.659 462.913 544.258 460.451 538.007L 420.253 407.941C 417.973 400.562 414.852 405.254 411.503 410.118L 395.253 429.672C 391.814 433.104 391.465 436.793 391.503 445.111L 391.904 536.583C 391.941 545.795 391.844 545.659 382.222 545.659C 372.328 545.659 361.851 545.75 361.851 545.75C 351.1 545.795 350.888 545.515 350.888 536.136C 350.888 526.765 351.805 374.868 350.888 297.624C 350.789 288.919 350.646 288.866 360.365 288.866C 370.085 288.866 383.715 288.385 383.715 288.385C 391.851 288.385 391.79 288.468 391.79 297.453L 391.669 364.148z"/>
<path style="stroke:none; fill:#ffffff" d="M 309.56 180.459C 316.122 180.459 316.137 180.94 316.137 189.83L 316.137 408.581C 316.137 423.414 316.44 423.43 309.182 423.437L 282.045 423.467C 276.431 423.475 276.265 423.354 276.25 414.91L 275.961 234.016C 275.946 222.956 276.727 220.114 270.401 226.296L 230.62 265.165C 226.331 269.354 225.953 269.252 222.21 269.259L 210.164 269.29C 206.96 269.297 200.149 269.29 206.354 263.335L 287.159 185.724C 292.333 180.557 292.553 180.614 296.894 180.334L 309.56 180.459z"/>
</g>
</svg>
